X: 1
T: B'fhearr leum a bha mi 'n uiridh
R: reel
M: 4/4
L: 1/8
K: D
|B|Adde ef~f2|fa~a2 ~f2 ef|Adde effe|1f2 ed efed:|2f2 ed effg:||
|g|a2 fe ~d3 e|~f2 ed ~e3 f|a2 fe ~d3 e|~f2 ed ~e3 f|
a2 fe ~d3 e|Afed effe|a2 fe efaf|fedB AFAB||

